dist/assets/img/favicon.svg

<svg height="141.732" viewBox="0 0 141.732 141.732" width="141.732" xml:space="preserve" xmlns="http://www.w3.org/2000/svg"><path d="m65.557 84.174-12.901 39.023 23.509-26.378 7.494 4.33 18.119-31.385-.11-.064H84.531L73.519 88.771l-7.962-4.597zm-39.264-.259L13.391 122.94l23.507-26.378 7.495 4.331 17.929-31.055-.234-.138-16.975-.001-10.859 18.813-7.961-4.597zm113.418-51.907c0-17.676-14.283-32.009-31.898-32.009a31.688 31.688 0 0 0-19.047 6.333A31.66 31.66 0 0 0 69.722.002C53.92 0 40.81 11.531 38.273 26.665a19.083 19.083 0 0 0-6.64-1.186c-8.332.001-15.423 5.327-18.081 12.77a15.305 15.305 0 0 0-.832-.03C5.696 38.218.001 43.991 0 51.115c0 7.026 5.537 12.733 12.429 12.889l.001.009 95.539-.001-.001-.004c17.544-.086 31.743-14.378 31.743-32" fill="#0f0"/></svg>

<?xml version="1.0" ?><!DOCTYPE svg  PUBLIC '-//W3C//DTD SVG 1.1//EN'  'http://www.w3.org/Graphics/SVG/1.1/DTD/svg11.dtd'><svg enable-background="new 0 0 141.732 141.732" height="141.732px" id="Livello_1" version="1.1" viewBox="0 0 141.732 141.732" width="141.732px" xml:space="preserve" xmlns="http://www.w3.org/2000/svg" xmlns:xlink="http://www.w3.org/1999/xlink"><g id="Livello_63"><path d="M65.557,84.174l-12.901,39.023l23.509-26.378l7.494,4.33l18.119-31.385l-0.11-0.064H84.531L73.519,88.771L65.557,84.174z    M26.293,83.915L13.391,122.94l23.507-26.378l7.495,4.331l17.929-31.055L62.088,69.7l-16.975-0.001L34.254,88.512L26.293,83.915z    M139.711,32.008c0-17.676-14.283-32.009-31.898-32.009C100.673,0,94.081,2.355,88.766,6.332C83.45,2.355,76.862,0,69.722,0.002   C53.92,0,40.81,11.531,38.273,26.665c-2.07-0.767-4.304-1.185-6.64-1.186c-8.332,0.001-15.423,5.327-18.081,12.77   c-0.276-0.017-0.553-0.028-0.832-0.03C5.696,38.218,0.001,43.991,0,51.115c0,7.026,5.537,12.733,12.429,12.889l0.001,0.009   l95.539-0.001l-0.001-0.004C125.512,63.922,139.711,49.63,139.711,32.008" fill="lime"/></g><g id="Livello_1_1_"/></svg>
